Assets/Icons/interaction/ellipsis-horizontal.svg

<svg enable-background="new 0 0 60 60" viewBox="0 0 60 60" xmlns="http://www.w3.org/2000/svg"><path d="m30 22.62c-4.07 0-7.38 3.31-7.38 7.38s3.31 7.38 7.38 7.38 7.38-3.31 7.38-7.38-3.31-7.38-7.38-7.38zm0 12c-2.54 0-4.62-2.07-4.62-4.62s2.07-4.62 4.62-4.62 4.62 2.07 4.62 4.62-2.08 4.62-4.62 4.62z"/><path d="m51 22.62c-4.07 0-7.38 3.31-7.38 7.38s3.31 7.38 7.38 7.38 7.38-3.31 7.38-7.38-3.31-7.38-7.38-7.38zm0 12c-2.54 0-4.62-2.07-4.62-4.62s2.07-4.62 4.62-4.62 4.62 2.07 4.62 4.62-2.08 4.62-4.62 4.62z"/><path d="m9 22.62c-4.07 0-7.38 3.31-7.38 7.38s3.31 7.38 7.38 7.38 7.38-3.31 7.38-7.38-3.31-7.38-7.38-7.38zm0 12c-2.54 0-4.62-2.07-4.62-4.62s2.08-4.62 4.62-4.62 4.62 2.07 4.62 4.62-2.08 4.62-4.62 4.62z"/></svg>

<?xml version="1.0" encoding="utf-8"?>
<!-- Generator: Adobe Illustrator 21.1.0, SVG Export Plug-In . SVG Version: 6.00 Build 0)  -->
<svg version="1.1" id="eps" xmlns="http://www.w3.org/2000/svg" xmlns:xlink="http://www.w3.org/1999/xlink" x="0px" y="0px"
	 viewBox="0 0 60 60" style="enable-background:new 0 0 60 60;" xml:space="preserve">
<title>icons / user-navigation / more</title>
<desc>Created with Sketch.</desc>
<g>
	<path d="M30,22.62c-4.07,0-7.38,3.31-7.38,7.38s3.31,7.38,7.38,7.38s7.38-3.31,7.38-7.38S34.07,22.62,30,22.62z M30,34.62
		c-2.54,0-4.62-2.07-4.62-4.62s2.07-4.62,4.62-4.62s4.62,2.07,4.62,4.62S32.54,34.62,30,34.62z"/>
	<path d="M51,22.62c-4.07,0-7.38,3.31-7.38,7.38s3.31,7.38,7.38,7.38s7.38-3.31,7.38-7.38S55.07,22.62,51,22.62z M51,34.62
		c-2.54,0-4.62-2.07-4.62-4.62s2.07-4.62,4.62-4.62s4.62,2.07,4.62,4.62S53.54,34.62,51,34.62z"/>
	<path d="M9,22.62c-4.07,0-7.38,3.31-7.38,7.38S4.93,37.38,9,37.38s7.38-3.31,7.38-7.38C16.38,25.93,13.07,22.62,9,22.62z M9,34.62
		c-2.54,0-4.62-2.07-4.62-4.62S6.46,25.38,9,25.38s4.62,2.07,4.62,4.62S11.54,34.62,9,34.62z"/>
</g>
</svg>
